X: 4883
T: Braes Of Mar
R: strathspey
M: 4/4
K: Dmajor
B,<D D<E G>A B>A|G<E E>D E<G E>D|B,<D D>E G>A B>A|G<e d>B A2 G2:|
|:B>d d<d d>d d<B|B>e e<e e>g e<d|B>d d<d d>d d<B|B<e d>B A2 G2:|

